X: 242
T: Farther Along
C:W B. Stevens
B: steve song book
B: velma
B: max
M:3/4
L:1/4
Q: 1/4=100
K:C
V:1 
"C"ege|"C"c3|"C"e2c|"F"dcA|"F"c3|"C"G3|
"C"ega|"C"g3|"C"e2c|"C"edc|"G"d3|"G"d3|
"C"ege|"C"c3|"C"e2c|"F"dcA|"F"c3|"C"G3|
"C"ega|"C"g3|"C"e3|"G"ded|"C"c3-|"C"c3||
V:2 
"C"[GE][BG][GE]|"C"[EC]3|"C"[cE]2[EC]|"F"[FD][EC][CA,]|"F"[CF]3|"C"[EG,]3|
"C"[GE][BG][cA]|"C"c3|"C"[cE]2[EC]|"C"[AE][^FD][DC|"G"[GD]3|"G"[GD]3|
"C"[GE][BG][GE]|"C"[EC]3|"C"[cE]2[EC]|"F"[FD][EC][CA,]|"F"[FC]3|"C"[EG,]3|
"C"[GE][BG][cA]|"C"[cA]3|"C7"[cA]3|"G"[FD][GE][FD]|"C"[EC]3-|"C"[EC]3||
V:3 
"C"CEC|"C"C3|"C"C2G,|"F"F,A,C|"F"F,3|"C"C3|
"C"CEC|"C"C3|"C"G,2B,|"C"DED|"G"G,3|"G"G,3|
"C"CEC|"C"C3|"C"C2G,|"F"F,A,C|"F"F,3|"C"C3|
"C"CEC|"C"C3|"C"B,3|"G"G,A,B,|"C"C3-|"C"C3||
W: CHORUS
W: Farther along we will know all about it
W: Farther along we will understand why
W: Cheer up my sister come live in the sunshine
W: We'll understand it, all by and by
W: 
W: V1
W: Life's precious magic gets lost in your worries
W: Take courage and live in each moment you know
W: You can choose sorrow or weep if you want to
W: Or you can step lightly wherever you go
W: CHORUS
W: 
W: V2
W: Times I have travelled from nothing to nowhere
W: Emptiness just down the road to despair
W: Life is a song and I am a singer
W: I can be happy just being here
W: 
W: CHORUS
% abcbook-tune_id 62a1472254a3e5c7b4983324


% abcbook-boost 0
% abcbook-tablature 
% abcbook-transpose 
% abcbook-lastupdated 1654740162989
% abcbook-soundfonts 
% abcbook-repeats 1


